app/images/service-icon-4.svg

<svg width="39" height="39" viewBox="0 0 39 39" fill="none" xmlns="http://www.w3.org/2000/svg">
<g clip-path="url(#clip0)">
<path d="M27.4562 9.79047H34.6603L25.5391 0.669189V7.87345C25.5391 8.93049 26.3991 9.79047 27.4562 9.79047Z" fill="white"/>
<path d="M27.4554 12.0758C25.1382 12.0758 23.2531 10.1907 23.2531 7.87358V0H7.87405C5.55698 0 3.67188 1.88503 3.67188 4.2021V34.7978C3.67188 37.1149 5.55698 39 7.87397 39H31.1268C33.4439 39 35.3289 37.1149 35.3289 34.7978V12.0758H27.4554Z" fill="white"/>
<path d="M21.1328 24.7441H17.9883V27H15.5273V24.7441H13.5254V22.7617H15.5273V21.7168H13.5254V19.7344H15.5273V12.7812H20.9668C22.5358 12.7812 23.7891 13.1914 24.7266 14.0117C25.6641 14.8255 26.1328 15.9095 26.1328 17.2637C26.1328 18.6439 25.6868 19.7279 24.7949 20.5156C23.903 21.2969 22.6628 21.6973 21.0742 21.7168H17.9883V22.7617H21.1328V24.7441ZM17.9883 19.7344H20.9277C21.8132 19.7344 22.4902 19.5293 22.959 19.1191C23.4277 18.709 23.6621 18.097 23.6621 17.2832C23.6621 16.554 23.431 15.9583 22.9688 15.4961C22.513 15.0339 21.8815 14.793 21.0742 14.7734H17.9883V19.7344Z" fill="#405670"/>
</g>
<defs>
<clipPath id="clip0">
<rect width="39" height="39" fill="white"/>
</clipPath>
</defs>
</svg>

<svg width="39" height="39" fill="none" xmlns="http://www.w3.org/2000/svg"><g clip-path="url(#clip0)"><path d="M27.456 9.79h7.204L25.54.67v7.203a1.92 1.92 0 001.916 1.917z" fill="#fff"/><path d="M27.455 12.076a4.207 4.207 0 01-4.202-4.202V0H7.874a4.207 4.207 0 00-4.202 4.202v30.596A4.207 4.207 0 007.874 39h23.253a4.207 4.207 0 004.202-4.202V12.076h-7.874z" fill="#fff"/><path d="M21.133 24.744h-3.145V27h-2.46v-2.256h-2.003v-1.982h2.002v-1.045h-2.002v-1.983h2.002v-6.953h5.44c1.569 0 2.822.41 3.76 1.23.937.815 1.406 1.899 1.406 3.253 0 1.38-.446 2.464-1.338 3.252-.892.78-2.132 1.181-3.72 1.2h-3.087v1.046h3.145v1.982zm-3.145-5.01h2.94c.885 0 1.562-.205 2.031-.615.469-.41.703-1.022.703-1.836 0-.729-.231-1.325-.693-1.787-.456-.462-1.088-.703-1.895-.723h-3.086v4.961z" fill="#405670"/></g><defs><clipPath id="clip0"><path fill="#fff" d="M0 0h39v39H0z"/></clipPath></defs></svg>
